Catalina-light/actions/16/page-3sides.svg

<svg width="16" height="16" viewBox="0 0 16 16" xmlns="http://www.w3.org/2000/svg">
<defs>
<style id="current-color-scheme" type="text/css">.ColorScheme-Text { color:#5c616c; } .ColorScheme-Highlight { color:#5294e2; }</style>
</defs>
<path class="ColorScheme-Text" d="m0 1v14h15v-14h-15zm2 2h3v10h-3v-10zm4 0h3v10h-3v-10zm4 0h3v10h-3v-10z" fill="#363636"/>
</svg>

<svg xmlns="http://www.w3.org/2000/svg" width="16" height="16" viewBox="0 0 16 16">
 <defs>
  <style id="current-color-scheme" type="text/css">
   .ColorScheme-Text { color:#5c616c; } .ColorScheme-Highlight { color:#5294e2; }
  </style>
 </defs>
 <path style="fill:currentColor" class="ColorScheme-Text" d="M 0 1 L 0 15 L 15 15 L 15 1 L 0 1 z M 2 3 L 5 3 L 5 13 L 2 13 L 2 3 z M 6 3 L 9 3 L 9 13 L 6 13 L 6 3 z M 10 3 L 13 3 L 13 13 L 10 13 L 10 3 z"/>
</svg>
